src/ui/images/logo/logo-black.svg

<?xml version="1.0" encoding="UTF-8"?>
<svg width="179px" height="34px" viewBox="0 0 179 34" version="1.1" xmlns="http://www.w3.org/2000/svg" xmlns:xlink="http://www.w3.org/1999/xlink">
    <!-- Generator: Sketch 63.1 (92452) - https://sketch.com -->
    <title>Logo</title>
    <desc>Created with Sketch.</desc>
    <g id="Page-1" stroke="none" stroke-width="1" fill="none" fill-rule="evenodd">
        <g id="Multi-Safe-creation_Dashboard" transform="translate(-72.000000, -18.000000)">
            <g id="Logo-Black" transform="translate(72.000000, 18.000000)">
                <g id="Group" stroke-width="1" fill-rule="evenodd" transform="translate(44.000000, 3.000000)" fill="#000000">
                    <path d="M2.90767045,16.5559659 L2.90767045,5.43963068 L2.90767045,5.43963068 L3.06285511,5.43963068 L7.58476277,16.6565182 C7.64577057,16.8078521 7.79258294,16.9069602 7.95575119,16.9069602 L9.58849897,16.9069602 C9.75155898,16.9069602 9.89829669,16.8079817 9.95937627,16.6567936 L14.481179,5.46413352 L14.481179,5.46413352 L14.6363636,5.46413352 L14.6363636,16.5559659 C14.6363636,16.7768798 14.8154497,16.9559659 15.0363636,16.9559659 L17.1440341,16.9559659 C17.364948,16.9559659 17.5440341,16.7768798 17.5440341,16.5559659 L17.5440341,0.228693182 L17.5440341,0.228693182 C16.3495146,0.205856068 15.3802911,0.409002367 14.6363636,0.838132078 C13.8924361,1.26726179 13.2430908,1.99777634 12.6883275,3.02967572 L8.87002841,12.3494318 L8.67400568,12.3494318 L4.83587108,2.98135329 C4.37543047,1.89950887 3.78442515,1.1851018 3.06285511,0.838132078 C2.34128507,0.491162353 1.32033337,0.288016055 -2.00373051e-12,0.228693182 L-2.00373051e-12,16.5559659 C-2.00168584e-12,16.7768798 0.179086103,16.9559659 0.400000006,16.9559659 L2.50767045,16.9559659 C2.72858435,16.9559659 2.90767045,16.7768798 2.90767045,16.5559659 Z M28.0417512,17.2091619 C29.4030202,17.2091619 30.5927692,16.9546046 31.6109984,16.4454901 C32.6292275,15.9363755 33.4201248,15.2271544 33.9836901,14.3178267 C34.5472555,13.4084991 34.8290381,12.3548769 34.8290381,11.1569602 L34.8290381,0.228693182 C33.6373805,0.292959352 32.8295507,0.516967069 32.4055488,0.900716331 C31.981547,1.28446559 31.7793152,1.97462928 31.7988535,2.97120739 L31.7988535,10.9037642 C31.7988535,11.6007339 31.6463914,12.2214725 31.3414671,12.7659801 C31.0365429,13.3104877 30.6022981,13.7365649 30.0387328,14.0442116 C29.4751674,14.3518584 28.8095069,14.5056818 28.0417512,14.5056818 C27.2739955,14.5056818 26.6096963,14.3518584 26.0488535,14.0442116 C25.4880107,13.7365649 25.0537659,13.3104877 24.7461191,12.7659801 C24.4384723,12.2214725 24.2846489,11.6007339 24.2846489,10.9037642 L24.2846489,2.93989859 C24.2354944,2.04811367 23.9862006,1.36838626 23.5367675,0.900716331 C23.0873345,0.433046406 22.3265668,0.209038689 21.2544643,0.228693182 L21.2544643,11.1569602 C21.2544643,12.3548769 21.5348857,13.4084991 22.0957285,14.3178267 C22.6565713,15.2271544 23.4461073,15.9363755 24.4643364,16.4454901 C25.4825656,16.9546046 26.6750372,17.2091619 28.0417512,17.2091619 Z M48.9368405,16.4559659 L48.9368405,14.9158381 C48.9368405,14.6396957 48.7129829,14.4158381 48.4368405,14.4158381 L41.569653,14.4158381 L41.569653,14.4158381 L41.569653,2.99426233 C41.569653,2.18407566 41.3870767,1.54446919 41.0219242,1.07544293 C40.6567716,0.606416665 39.8292863,0.324166749 38.5394683,0.228693182 L38.5394683,16.4559659 C38.5394683,16.7321083 38.763326,16.9559659 39.0394683,16.9559659 L48.4368405,16.9559659 C48.7129829,16.9559659 48.9368405,16.7321083 48.9368405,16.4559659 Z M57.2783076,16.4559659 L57.2783076,2.76882102 L57.2783076,2.76882102 L62.4484071,2.76882102 L62.4484071,0.228693182 L49.1025264,0.228693182 C49.0809119,0.997683565 49.2391871,1.5939377 49.5773522,2.01745558 C49.9155173,2.44097346 50.4333115,2.69142861 51.1307349,2.76882102 L54.2726258,2.76882102 L54.2726258,16.4559659 C54.2726258,16.7321083 54.4964834,16.9559659 54.7726258,16.9559659 L56.7783076,16.9559659 C57.05445,16.9559659 57.2783076,16.7321083 57.2783076,16.4559659 Z M68.4539367,16.9559659 L68.4539367,2.97314068 C68.4799229,2.01818181 68.2524421,1.32203418 67.7714942,0.88469778 C67.2905463,0.447361381 66.5079656,0.228693182 65.423752,0.228693182 L65.423752,14.0062308 C65.4564316,15.0337913 65.7765895,15.7625932 66.3842256,16.1926365 C66.9918617,16.6226798 67.6817654,16.8771229 68.4539367,16.9559659 Z" id="MULTISIGN" fill-rule="nonzero"></path>
                    <path d="M83.4932528,17.2091619 C84.8327415,17.2091619 85.9748461,17.0008878 86.9195668,16.5843395 C87.8642874,16.1677912 88.5871212,15.5878906 89.0880682,14.8446378 C89.5890152,14.1013849 89.8394886,13.2397017 89.8394886,12.2595881 C89.8394886,11.535393 89.7033617,10.9037642 89.431108,10.3647017 C89.1588542,9.8256392 88.7899503,9.3655303 88.3243963,8.984375 C87.8588423,8.6032197 87.3333925,8.2874053 86.7480469,8.03693182 C86.1627012,7.78645833 85.554214,7.58771307 84.9225852,7.44069602 L84.9225852,7.44069602 L83.3544034,7.04865057 C83.0113636,6.96697443 82.6710464,6.86624053 82.3334517,6.74644886 C81.995857,6.6266572 81.6882102,6.47827888 81.4105114,6.30131392 C81.1328125,6.12434896 80.9136482,5.9079072 80.7530185,5.65198864 C80.5923887,5.39607008 80.5120739,5.09386837 80.5120739,4.74538352 C80.5175189,4.32611269 80.6400331,3.953125 80.8796165,3.62642045 C81.1191998,3.29971591 81.4649621,3.04107481 81.9169034,2.85049716 C82.3688447,2.65991951 82.9106297,2.56463068 83.5422585,2.56463068 C84.440696,2.56463068 85.1716974,2.76337595 85.7352628,3.16086648 C86.2988281,3.55835701 86.6187263,4.11375473 86.6949574,4.82705966 L86.6949574,4.82705966 L89.6107955,4.82705966 C89.5944602,3.88506155 89.3303741,3.05060369 88.8185369,2.32368608 C88.3066998,1.59676847 87.6029238,1.02775805 86.7072088,0.61665483 C85.8114938,0.20555161 84.7701231,1.77635684e-15 83.5830966,1.77635684e-15 C82.4124053,1.77635684e-15 81.3642282,0.20555161 80.4385653,0.61665483 C79.5129025,1.02775805 78.781901,1.60357481 78.2455611,2.34410511 C77.7092211,3.08463542 77.4410511,3.94767992 77.4410511,4.93323864 C77.4410511,6.1311553 77.8399029,7.09084991 78.6376065,7.81232244 C79.4353101,8.53379498 80.522964,9.07149621 81.9005682,9.42542614 L81.9005682,9.42542614 L83.8036222,9.91548295 C84.4025805,10.0679451 84.926669,10.2408262 85.3758878,10.4341264 C85.8251065,10.6274266 86.1749527,10.8670099 86.4254261,11.1528764 C86.6758996,11.4387429 86.8038589,11.7994792 86.809304,12.2350852 C86.8038589,12.7142519 86.6595644,13.1321615 86.3764205,13.4888139 C86.0932765,13.8454664 85.7025923,14.1231652 85.2043679,14.3219105 C84.7061435,14.5206558 84.1276042,14.6200284 83.46875,14.6200284 C82.8371212,14.6200284 82.2667495,14.5247396 81.7576349,14.3341619 C81.2485204,14.1435843 80.8360559,13.8549953 80.5202415,13.4683949 C80.2044271,13.0817945 80.0247396,12.5971828 79.981179,12.0145597 L79.981179,12.0145597 L77,12.0145597 C77.0435606,13.1253551 77.3335109,14.0673532 77.8698509,14.840554 C78.4061908,15.6137547 79.1521662,16.2018229 80.107777,16.6047585 C81.0633878,17.0076941 82.1918797,17.2091619 83.4932528,17.2091619 Z M94.9465962,16.6149377 L99.3590455,3.45698431 L99.3590455,3.45698431 L103.775693,16.6150722 C103.844055,16.8187353 104.034873,16.9559659 104.249703,16.9559659 L106.418062,16.9559659 C106.694204,16.9559659 106.918062,16.7321083 106.918062,16.4559659 C106.918062,16.3993412 106.908443,16.3431278 106.889617,16.2897245 L101.345139,0.562451748 C101.274633,0.362458809 101.085641,0.228693182 100.873584,0.228693182 L97.8407633,0.228693182 C97.6286266,0.228693182 97.4395814,0.362557849 97.3691365,0.562656594 L91.8323379,16.2899293 C91.7406384,16.5504016 91.8774558,16.8358932 92.1379281,16.9275927 C92.1912708,16.9463721 92.2474129,16.9559659 92.3039647,16.9559659 L94.4725413,16.9559659 C94.6874237,16.9559659 94.8782757,16.8186697 94.9465962,16.6149377 Z M112.770647,16.9559659 L112.770647,9.85014205 L119.721287,9.85014205 L119.721287,7.3100142 L109.740463,7.3100142 L109.740463,16.9559659 L112.770647,16.9559659 Z M110.423769,2.05711384 C110.798473,2.51836153 111.330054,2.75560174 112.018509,2.76883446 L120.456372,2.76883446 L120.456372,0.228693182 L109.740463,0.228693182 C109.821295,0.986392591 110.049064,1.59586614 110.423769,2.05711384 Z M124.296059,2.05711384 C124.677757,2.51836153 125.219259,2.75560174 125.920564,2.76883446 L134.015909,2.76883446 L134.015909,0.228693182 L123.6,0.228693182 C123.682341,0.986392591 123.914361,1.59586614 124.296059,2.05711384 Z M134.564174,16.9559659 L134.564174,14.4158381 L126.649756,14.4158381 L126.649756,9.85014205 L133.935268,9.85014205 L133.935268,7.3100142 L123.619572,7.3100142 L123.619572,16.9559659 L134.564174,16.9559659 Z" id="SAFE" fill-rule="nonzero"></path>
                </g>
                <g id="Group-2" stroke-width="1" fill-rule="evenodd">
                    <path d="M28,0 C31.3137085,-6.08718376e-16 34,2.6862915 34,6 L34,22 C34,23.537611 33.4216144,24.9401327 32.4705395,26.001869 L32.4795559,26 L32.3972573,26.0822097 C32.2955475,26.1917187 32.1897966,26.2974226 32.0802421,26.399084 L26.4855847,31.9910519 C25.380625,33.2240819 23.7809252,34 22,34 L6,34 C2.6862915,34 4.05812251e-16,31.3137085 0,28 L0,12 C-2.18336923e-16,10.2171437 0.777601704,8.61590605 2.01215162,7.51694049 L2.00863801,7.51711393 L7.53394243,1.99313316 C8.63238718,0.76962097 10.2263163,3.25820413e-16 12,0 L28,0 Z" id="Combined-Shape" fill="#000000"></path>
                    <rect id="Rectangle-Copy" fill="#FFFFFF" x="2.83333333" y="9.44444444" width="21.7222222" height="21.7222222" rx="5"></rect>
                    <path d="M19.8333333,14.167937 L19.8333333,26.0444444 C19.8333333,26.2653583 19.6542472,26.4444444 19.4333333,26.4444444 L19.4333333,26.4444444 L18.1984689,26.4444444 C17.977555,26.4444444 17.7984689,26.2653583 17.7984689,26.0444444 L17.7984689,26.0444444 L17.7984689,18.01034 L17.6898665,18.01034 L14.5533597,26.1522692 C14.4938911,26.3066414 14.3455289,26.4084781 14.1800983,26.4084781 L14.1800983,26.4084781 L12.955115,26.4084781 C12.904264,26.4084781 12.8538794,26.3987821 12.8066602,26.3799094 C12.6015244,26.2979201 12.5016944,26.0651592 12.5836837,25.8600234 L12.5836837,25.8600234 L16.4351818,16.2236387 C16.8234197,15.4663054 17.2778488,14.930165 17.7984689,14.6152174 C18.319089,14.3002698 18.9973771,14.1511763 19.8333333,14.167937 L19.8333333,14.167937 Z M7.55555556,14.167937 C8.47955967,14.2114753 9.1940486,14.3605688 9.69902235,14.6152174 C10.2039961,14.869866 10.6175972,15.3941848 10.9398257,16.1881738 L10.9398257,16.1881738 L12.8674439,21.1178789 L11.7874912,23.4477769 L9.69902235,17.9923568 L9.59042003,17.9923568 L9.59042003,26.0444444 C9.59042003,26.2653583 9.41133393,26.4444444 9.19042002,26.4444444 L9.19042002,26.4444444 L7.95555556,26.4444444 C7.73464166,26.4444444 7.55555556,26.2653583 7.55555556,26.0444444 L7.55555556,26.0444444 Z" id="Combined-Shape" fill="#000000"></path>
                </g>
                <text id="2020-|-POWERED-BY-NE" font-family="Roboto-Regular, Roboto" font-size="8" font-weight="normal" line-spacing="10" letter-spacing="0.34" fill="#000000" fill-opacity="0.87">
                    <tspan x="44" y="31">2021  |  POWERED BY NEAR </tspan>
                </text>
            </g>
        </g>
    </g>
</svg>

<svg xmlns="http://www.w3.org/2000/svg" width="182" height="36" viewBox="0 0 182 36">
    <g fill="none" fill-rule="evenodd">
        <g>
            <g>
                <g fill="#000">
                    <path d="M2.908 16.556V5.44h.155l4.522 11.217c.06.15.208.25.37.25h1.633c.164 0 .31-.099.371-.25l4.522-11.193h.155v11.092c0 .22.18.4.4.4h2.108c.22 0 .4-.18.4-.4V.229c-1.194-.023-2.164.18-2.908.61-.744.428-1.393 1.159-1.948 2.19L8.87 12.35h-.196L4.836 2.981C4.376 1.9 3.784 1.185 3.063.838 2.34.491 1.32.288 0 .228v16.328c0 .22.18.4.4.4h2.108c.22 0 .4-.18.4-.4zm25.134.653c1.361 0 2.55-.254 3.569-.764 1.018-.509 1.81-1.218 2.373-2.127.563-.91.845-1.963.845-3.161V.229c-1.192.064-2 .288-2.423.672-.424.383-.627 1.074-.607 2.07v7.933c0 .697-.153 1.317-.458 1.862-.304.544-.739.97-1.302 1.278-.564.308-1.23.462-1.997.462-.768 0-1.432-.154-1.993-.462-.561-.307-.995-.734-1.303-1.278-.308-.545-.461-1.165-.461-1.862V2.94c-.05-.892-.299-1.572-.748-2.04-.45-.467-1.21-.691-2.283-.671v10.928c0 1.198.28 2.251.842 3.16.56.91 1.35 1.62 2.368 2.128 1.019.51 2.211.764 3.578.764zm20.895-.753v-1.54c0-.276-.224-.5-.5-.5H41.57V2.994c0-.81-.183-1.45-.548-1.919-.365-.469-1.193-.75-2.483-.846v16.227c0 .276.224.5.5.5h9.398c.276 0 .5-.224.5-.5zm8.341 0V2.769h5.17V.229H49.103c-.022.769.136 1.365.474 1.788.339.424.856.674 1.554.752h3.142v13.687c0 .276.223.5.5.5h2.005c.276 0 .5-.224.5-.5zm11.176.5V2.973c.026-.955-.202-1.651-.683-2.088-.48-.438-1.263-.656-2.347-.656v13.777c.032 1.028.353 1.757.96 2.187.608.43 1.298.684 2.07.763zM83.493 17.21c1.34 0 2.482-.21 3.427-.626.944-.416 1.667-.996 2.168-1.74.501-.743.751-1.604.751-2.584 0-.725-.136-1.356-.408-1.895-.272-.54-.641-1-1.107-1.38-.465-.382-.99-.698-1.576-.948-.585-.25-1.194-.45-1.825-.596l-1.569-.392c-.343-.082-.683-.183-1.02-.303-.338-.12-.646-.268-.923-.445-.278-.177-.497-.393-.658-.649-.16-.256-.24-.558-.24-.907.005-.419.127-.792.367-1.119.24-.326.585-.585 1.037-.776.452-.19.994-.285 1.625-.285.899 0 1.63.198 2.193.596.564.397.884.953.96 1.666h2.916c-.017-.942-.28-1.776-.792-2.503-.512-.727-1.216-1.296-2.112-1.707C85.811.206 84.77 0 83.583 0c-1.17 0-2.219.206-3.144.617-.926.41-1.657.987-2.193 1.727-.537.74-.805 1.604-.805 2.59 0 1.197.399 2.157 1.197 2.878.797.722 1.885 1.26 3.263 1.613l1.903.49c.599.153 1.123.326 1.572.52.45.192.799.432 1.05.718.25.286.378.646.383 1.082-.005.48-.15.897-.433 1.254-.283.356-.673.634-1.172.833-.498.199-1.076.298-1.735.298-.632 0-1.202-.095-1.711-.286-.51-.19-.922-.479-1.238-.866-.316-.386-.495-.87-.539-1.453H77c.044 1.11.334 2.052.87 2.826.536.773 1.282 1.36 2.238 1.764.955.403 2.084.604 3.385.604zm11.454-.595l4.412-13.158 4.417 13.158c.068.204.259.341.474.341h2.168c.276 0 .5-.224.5-.5 0-.057-.01-.113-.028-.166L101.345.562c-.07-.2-.26-.333-.471-.333H97.84c-.212 0-.401.134-.472.334L91.832 16.29c-.091.26.045.546.306.638.053.018.11.028.166.028h2.169c.214 0 .405-.137.474-.341zm17.824.341V9.85h6.95V7.31h-9.98v9.646h3.03zm-2.347-14.899c.374.461.906.699 1.595.712h8.437V.229H109.74c.081.757.31 1.367.684 1.828zm13.872 0c.382.461.923.699 1.625.712h8.095V.229H123.6c.082.757.314 1.367.696 1.828zm10.268 14.899v-2.54h-7.914V9.85h7.285V7.31H123.62v9.646h10.944z" transform="translate(-24 -18) translate(24 18) translate(44 3)"/>
                </g>
                <g transform="translate(-24 -18) translate(24 18)">
                    <path fill="#000" d="M28 0c3.314 0 6 2.686 6 6v16c0 1.538-.578 2.94-1.53 4.002l.01-.002-.083.082c-.101.11-.207.215-.317.317l-5.594 5.592C25.38 33.224 23.78 34 22 34H6c-3.314 0-6-2.686-6-6V12c0-1.783.778-3.384 2.012-4.483H2.01l5.525-5.524C8.632.77 10.226 0 12 0h16z"/>
                    <rect width="21.722" height="21.722" x="2.833" y="9.444" fill="#FFF" rx="5"/>
                    <path fill="#000" d="M19.833 14.168v11.876c0 .221-.179.4-.4.4h-1.235c-.22 0-.4-.179-.4-.4V18.01h-.108l-3.137 8.142c-.06.155-.207.256-.373.256h-1.225c-.05 0-.101-.01-.148-.028-.205-.082-.305-.315-.223-.52l3.851-9.636c.388-.758.843-1.294 1.363-1.609.521-.315 1.2-.464 2.035-.447zm-12.277 0c.924.043 1.638.193 2.143.447.505.255.919.78 1.24 1.573l1.928 4.93-1.08 2.33L9.7 17.992H9.59v8.052c0 .221-.179.4-.4.4H7.956c-.221 0-.4-.179-.4-.4z"/>
                </g>
                <text fill="#000" fill-opacity=".87" font-family="Roboto-Regular, Roboto" font-size="8" letter-spacing=".34" transform="translate(-24 -18) translate(24 18)">
                    <tspan x="44" y="31">2020 PARAS | POWERED BY NEAR </tspan>
                </text>
            </g>
        </g>
    </g>
</svg>
